X:1
T: The Lifting of the Linnen
T: Wattie Lang
R:Reel
Q: 232
K:A
M:4/4
L:1/8
e|:A2 ec Bc df|A2 ec AA ec|df ce Bc df|ed cB AA ce:|
|:A2 ac Bc df|A2 ac A2 ac|af ac Bc df|ed cB AA ce:|
|:Ae ce Bc df|Ae ce Ae ce|df ce Bc df|ed cB AA ce:|
|:A2 ac Bc df|A2 ac AA aE|af ac Bc df|ed cB AA ce:|
